X: 1
M: 6/4
L: 1/8
Q: 3/4=88 "with elegance"
P: 3 x (AA BA CA)
K: Gm
V: 1
"A"[|] d2 |\
"Gm"B3AB2 "Eb"G4b2 | "Cm"a4g2 "Dm"f3e"Gm"d2 | "Cm"e3de2 "F"c2f2e2 | "Bb"d6 B3cd2 |\
"Cm"e2d2e2 "F"c2f2e2 | "Bb"d2g2"G"f2 "C"=e2a2"Am"e2 | "D"^f2d2"Gm"g2 g4^f2 | "Gm"g6 "fine"G4 :|
"B"[|] "D"A2 |\
"Gm"B3AB2 "C"G2c2B2 | "F"A6 F2f2e2 | "Bb"d2g2f2 "Cm"e2c2"F"f2 | d6 B2c2d2 |\
"F"e2c2f2 "Eb"f2B2e2 | "D"c2A2d2 "Gm"B2G2e2 | "D"d2c2B2 "Gm"B4A2 | "D"A6 "d.C."D4 ||
"C"[|] "D"a2 |\
"Gm"b2a2g2 "Dm"f2e2"Gm"d2 | "Cm"e6 "F"c2","f2e2 | "D"d2c2B2 A2d2c2 | "G"=B6 "Cm"c2d2e2 |\
"Bb"f2d2B2 "Gm"b2f2d2 | "Cm"e2g2c2 "F"A2c2f2 | "Bb"d2g2"G"f2 | "C"=e2a2"A"e2 | "D"^f6 "d.C."d4 |]
V: 2
E2F2G2 A4F2 | F4G2 G2A2c2 | d2c2B2 A2B2c2 | B2G2D2 "fine"B,4 :|
^F2 |\
^F2 |\
d2_B2G2 d2c2B2 | G2E4 F2A4 | B4G2 G2A2^c2 | d2A2G2 "d.C."^F4 |]
V:3 clef=bass middle=d
g2 |\
"Gm"g6 "Eb"e6 | "Cm"c6 "Dm"d4 "Gm"g2 | "Cm"c6 "F"f6 | "Bb"B6- B4B2 |
"Cm"c6 "F"f4A2 | "Bb"B4=B2 "C"c4"Am"A2 | "D"d6 D6 | "Gm"G6 "fine"G4 :|
"D"d2 |\
"Gm"G6 "C"c6 | "F"F6 f4A2 | "Bb"B6 "Cm"c4"F"A2 | "Bb"B6 b6 |
"F"a6 "Eb"g6 | "D"a4^f2 "Gm"g6 | "D"^f4"Gm"g2 G6 | "D"d6- "d.C."d4 ||
"D"d2 |\
"Gm"g6 "Dm"d4"Gm"g2 | "Cm"c6 "F"f6 | "D"^f6- f4d2 | "G"g4=f2 "Cm"e6 |
"Bb"d4"Gm"g2 G2A2B2 | "Cm"c6 "F"f6 | "Bb"B4"G"=B2 "C"c4"A"A2 | "D"d6- "d.C."d4 |]


